X: 21692
T: Kiltimagh, The
R: jig
M: 6/8
K: Gmajor
|:D|GBd edB|ded dBA|G2e dBG|AGA BGE|
GBd edB|ded def|g2e dBG|AGF G2:|
|:d|gfg edB|ded def|g2e dBG|ABA ABd|
g2d edB|ded def|gfe dBG|AGF G2:|

